X:4
T:Jackson's Morning Brush
Z: id:dc-jig-61
M:6/8
L:1/8
K:D Major
D|DFE EFD|DFA AFA|BAB def|gee e2D|!
DFE EFD|DFA AFA|BAB d2e|fdc d2:|!
g|fed fag|fda fdB|AFA def|gfg e2g|!
fed fag|fda fdB|AFA d2e|fdc d2:|!
e|fdf ece|dBd AFA|DFA def|gfg e2g|!
fdf ece|dcd AFA|DFA d2e|fdc d2:|!
e|fed faf|gbg fag|fed faf|~g3 efg|!
fed faf|~g3 fag|fed ede|fdc d2:|!

